X: 10
T: Gregg's Pipes
R: reel
M: C|
L: 1/8
Z: 2010 John Chambers <jc:trillian.mit.edu>
B: 19th century tune book collected by W.A. Cocks.
F: http://www.asaplive.com/archive/browse_by_collection.asp
N: The asaplive.com web site is complex, and links to its files don't usually work.
K: A
   f | eAcA eAAf | eAcA BFFf | eAcA eAcA | B/B/B cA BFF :|
|: B | cAcA cAAB | cAcA BFFB | cAcA EAcA | B/B/B cA BFF :|
|: A | EA,CA, EA,A,A | EA,CA, FB,B,A | EA,CA, EA,CA, | B,/B,/B, CE FB,B, :|
|: g | aece aAAe | aece fBBg | aece cAec | dfce fBB :|


%%sep 5 1 500

